projects/harbor/horizontal/black/harbor-horizontal-black.svg

<svg id="svg2" xmlns="http://www.w3.org/2000/svg" viewBox="0 0 637.33333 181"><defs><style>.cls-1{fill:none;}</style></defs><title>harbor-horizontal-black</title><path class="cls-1" d="M390.73816,62.90082H369.40356V90.95154h21.2356c10.37109,0,17.778-5.3327,17.778-14.22241v-.1972C408.41718,68.03851,401.89978,62.90082,390.73816,62.90082Z"/><path class="cls-1" d="M459.48529,93.42072H437.65881v24.39545h23.20953c10.47,0,16.98743-4.64105,16.98743-12.345v-.198C477.85577,97.76654,471.53479,93.42072,459.48529,93.42072Z"/><path class="cls-1" d="M474.00378,74.16083v-.19739c0-6.81451-5.4314-11.259-15.30737-11.259h-21.0376V86.50708h20.44342C467.48639,86.50708,474.00378,82.26062,474.00378,74.16083Z"/><path class="cls-1" d="M530.30524,61.71753c-15.80249,0-27.06146,12.64185-27.06146,28.345v.19806c0,15.7038,11.457,28.544,27.25952,28.544,15.80414,0,27.06311-12.64233,27.06311-28.3468v-.1972C557.56641,74.55658,546.10944,61.71753,530.30524,61.71753Z"/><polygon class="cls-1" points="300.064 99.445 331.867 99.445 315.966 64.087 300.064 99.445"/><path class="cls-1" d="M608.2417,62.90082H586.9071V90.95154h21.2356c10.371,0,17.778-5.3327,17.778-14.22241v-.1972C625.92072,68.03851,619.40332,62.90082,608.2417,62.90082Z"/><path class="cls-1" d="M88.827,75.9942l63.93121-20.54486.00006-.00006c-.04785-.08746-.08911-.17822-.137-.264a71.19217,71.19217,0,0,0-8.3443-11.90753h-.00006L87.713,72.55066l41.07825-42.72034A70.71671,70.71671,0,1,0,52.66266,149.027l1.1546-13.05011L88.06787,151.0697l.74207,9.07459c.64307.01733,1.28265.049,1.92987.049a70.86687,70.86687,0,0,0,69.14648-55.789L87.713,79.36469l73.56787,5.27991a70.32728,70.32728,0,0,0-1.62231-11.06207ZM53.29639,92.139V84.098h2.77155V67.6886H53.29639V62.9718L68.68762,47.912V46.85242a1.45251,1.45251,0,0,1,2.905,0V47.912L86.98322,62.9718v4.7168h-2.771V84.098h2.771V92.139H83.24854l1.96741,24.06482L56.67969,103.62872,57.69635,92.139Zm33.10651,38.57275.47833,5.84937L55.00867,122.51465l.47961-5.425ZM55.8443,113.07257l.48022-5.42633,29.24609,12.88794.47833,5.84735ZM54.17322,131.958l.48029-5.42432L87.236,140.89209l.477,5.84717Z"/><polygon points="85.571 120.534 56.325 107.646 56.325 107.646 85.571 120.534"/><path d="M266.87128,55.19684a3.96266,3.96266,0,0,0-3.94934,3.951V86.40851h-39.9032V59.14783a3.901,3.901,0,1,0-7.80139,0v62.22443a3.901,3.901,0,1,0,7.80139,0v-27.655h39.9032v27.655a3.901,3.901,0,1,0,7.80139,0V59.14783A3.94368,3.94368,0,0,0,266.87128,55.19684Z"/><path d="M321.20056,58.35895a4.97715,4.97715,0,0,0-4.839-3.45758h-.39606c-2.469,0-3.951,1.284-4.938,3.45758l-28.05,61.33521v-.00006a4.49931,4.49931,0,0,0-.49512,2.07275,3.54173,3.54173,0,0,0,3.55493,3.55676,3.91064,3.91064,0,0,0,3.75464-2.66705l7.21057-16.09973h37.92767L342.139,122.4585a4.25908,4.25908,0,0,0,3.85205,2.86511,3.75209,3.75209,0,0,0,3.753-3.75464,5.26235,5.26235,0,0,0-.49512-1.97534ZM300.064,99.44531l15.90155-35.35785,15.90155,35.35785Z"/><path d="M391.329,55.692H365.45416a3.94254,3.94254,0,0,0-3.852,3.951v61.72931a3.901,3.901,0,1,0,7.80139,0V97.96442h19.85266l19.45807,25.28448a4.54653,4.54653,0,0,0,3.65234,2.07471,4.08053,4.08053,0,0,0,3.95264-3.852,4.24887,4.24887,0,0,0-1.284-2.86511L397.84979,96.483c10.7655-2.074,18.46948-8.69165,18.46948-20.05048v-.1972a19.09417,19.09417,0,0,0-5.334-13.62994C406.63971,58.25995,399.82526,55.692,391.329,55.692Zm17.08813,21.03717c0,8.88971-7.40692,14.22241-17.778,14.22241h-21.2356V62.90082h21.33459c11.16162,0,17.679,5.1377,17.679,13.6311Z"/><path d="M470.944,89.07489c5.43146-2.36981,10.96191-7.01221,10.96191-16.00037v-.19708a15.35825,15.35825,0,0,0-4.44452-11.06256c-3.951-3.852-10.173-6.12292-18.07343-6.12292H433.80682a3.94254,3.94254,0,0,0-3.852,3.951h-.00006v61.23615a3.94223,3.94223,0,0,0,3.85205,3.9494h26.86346c15.111,0,25.08759-7.01233,25.08759-18.86414v-.19788C485.75787,96.285,479.13983,91.54407,470.944,89.07489ZM437.65881,62.70447h21.0376c9.876,0,15.30737,4.44446,15.30737,11.259v.19739c0,8.09979-6.51739,12.34625-15.90155,12.34625H437.65881Zm40.197,42.76672c0,7.70392-6.51739,12.345-16.98743,12.345H437.65881V93.42072h21.82648c12.0495,0,18.37048,4.34583,18.37048,11.85248Z"/><path d="M530.5033,54.507c-21.03754,0-35.358,16.692-35.358,35.7536v.1972c0,19.062,14.12238,35.55756,35.15991,35.55756s35.35968-16.69226,35.35968-35.75476V90.0625C565.66492,71.001,551.54248,54.507,530.5033,54.507Zm27.06311,35.95081c0,15.70447-11.259,28.3468-27.06311,28.3468-15.80249,0-27.25952-12.84021-27.25952-28.544V90.0625c0-15.70313,11.259-28.345,27.06146-28.345,15.8042,0,27.26117,12.83905,27.26117,28.543Z"/><path d="M608.83258,55.692H582.9577a3.94254,3.94254,0,0,0-3.852,3.951h-.00012v61.72931a3.901,3.901,0,1,0,7.80139,0V97.96442h19.85425l19.45648,25.28448a4.54634,4.54634,0,0,0,3.65228,2.07471,4.08059,4.08059,0,0,0,3.9527-3.852,4.24907,4.24907,0,0,0-1.28394-2.86511L615.35321,96.483c10.7655-2.074,18.4696-8.69165,18.4696-20.05048v-.1972a19.09417,19.09417,0,0,0-5.334-13.62994C624.14325,58.25995,617.3288,55.692,608.83258,55.692Zm17.08813,21.03717c0,8.88971-7.407,14.22241-17.778,14.22241H586.9071V62.90082H608.2417c11.16162,0,17.679,5.1377,17.679,13.6311Z"/><path d="M53.81726,135.97687,52.66266,149.027a70.289,70.289,0,0,0,36.14728,11.11731l-.74207-9.07459Z"/><path d="M56.67969,103.62872l28.53625,12.57513L83.24854,92.139h3.73468V84.098h-2.771V67.6886h2.771V62.9718L71.59265,47.912V46.85242a1.45251,1.45251,0,0,0-2.905,0V47.912L53.29639,62.9718v4.7168h2.77155V84.098H53.29639V92.139h4.4Zm3.843-35.94012H79.75677V84.098H75.19244v-7.009a5.05267,5.05267,0,1,0-10.10535,0v7.009H60.52264Z"/><polygon points="55.009 122.515 86.881 136.561 86.403 130.712 55.488 117.09 55.009 122.515"/><polygon points="54.654 126.534 54.173 131.958 87.713 146.739 87.236 140.892 54.654 126.534"/><polygon points="56.325 107.646 56.325 107.646 55.844 113.073 86.049 126.382 85.571 120.534 56.325 107.646"/><path d="M156.19965,54.34357l11.9931-3.8537c-.05615-.10889-.10236-.22443-.15845-.33173a87.01509,87.01509,0,0,0-9.25537-14.38483l-.00006.00006-11.25226,5.82269A74.39587,74.39587,0,0,1,156.19965,54.34357Z"/><path d="M152.62128,55.18524c.04791.08582.08917.17657.137.264l-.00006.00006,3.44141-1.10577a74.39587,74.39587,0,0,0-8.673-12.7475L144.277,43.27771A71.19217,71.19217,0,0,1,152.62128,55.18524Z"/><path d="M164.85638,84.90118l12.496.89667A86.24666,86.24666,0,0,0,175.87366,73.03l-12.60864.42969A74.22012,74.22012,0,0,1,164.85638,84.90118Z"/><path d="M159.65857,73.58252a70.32728,70.32728,0,0,1,1.62231,11.06207l3.5755.25659A74.22012,74.22012,0,0,0,163.265,73.45966Z"/><path d="M90.73981,163.70679c-.55072,0-1.09412-.0296-1.642-.0415l.47681,5.83075L51.9104,157.52936l.40057-4.52722A74.26721,74.26721,0,1,1,131.2901,27.23145l8.75519-9.10571a86.72277,86.72277,0,1,0,35.01306,91.5423l-11.82709-4.10327A74.28132,74.28132,0,0,1,90.73981,163.70679Z"/><path d="M90.73981,160.19324c-.64722,0-1.2868-.03162-1.92987-.049l.2879,3.521c.54785.0119,1.09125.0415,1.642.0415a74.28132,74.28132,0,0,0,72.49146-58.142l-3.345-1.16052A70.86687,70.86687,0,0,1,90.73981,160.19324Z"/><path d="M19.9837,89.43915A70.70483,70.70483,0,0,1,128.79126,29.83032l2.49884-2.59888A74.26686,74.26686,0,1,0,52.311,153.00214l.35168-3.97516A70.74306,70.74306,0,0,1,19.9837,89.43915Z"/><path d="M51.9104,157.52936,89.57465,169.496l-.47681-5.83075A73.88616,73.88616,0,0,1,52.311,153.00214Z"/><path d="M52.311,153.00214a73.88616,73.88616,0,0,0,36.78687,10.66315l-.2879-3.521A70.289,70.289,0,0,1,52.66266,149.027Z"/><path d="M147.52661,41.59607l11.25226-5.82269c-.50171-.63544-.98529-1.28571-1.50348-1.90625a87.46233,87.46233,0,0,0-14.842-14.03491c-.78558-.58423-1.58441-1.14868-2.38812-1.70648l-8.75519,9.10571A74.64187,74.64187,0,0,1,147.52661,41.59607Z"/><path d="M87.713,72.55066l56.5639-29.27295h.00006l-.00006-.00006,3.24969-1.68158A74.64187,74.64187,0,0,0,131.2901,27.23145l-2.49884,2.59888Z"/><polygon points="144.277 43.278 147.527 41.596 144.277 43.278 144.277 43.278"/><path d="M177.35242,85.79791l-12.496-.89673c.09064,1.50238.15106,3.01282.15106,4.538a74.46719,74.46719,0,0,1-1.77618,16.12561l11.82709,4.10321c.04456-.17987.0957-.35645.13861-.53815a86.6314,86.6314,0,0,0,2.28082-19.69067c0-.22955-.01483-.45587-.01648-.68524C177.45306,87.76166,177.39368,86.78235,177.35242,85.79791Z"/><path d="M164.85638,84.90118l-3.5755-.25659L87.713,79.36469l72.17328,25.03955,3.345,1.16052a74.46719,74.46719,0,0,0,1.77618-16.12561C165.00745,87.914,164.947,86.40356,164.85638,84.90118Z"/><path d="M163.265,73.45966,175.87366,73.03c-.241-1.25-.48688-2.49939-.78064-3.73224a86.086,86.086,0,0,0-6.90027-18.80786l-11.9931,3.8537A73.75167,73.75167,0,0,1,163.265,73.45966Z"/><path d="M88.827,75.9942l70.83154-2.41168,3.60645-.12286a73.75167,73.75167,0,0,0-7.06537-19.11609l-3.44141,1.10577Z"/></svg>

<svg xmlns="http://www.w3.org/2000/svg" role="img" viewBox="-8.59 -10.09 654.68 198.68"><path fill="none" d="M390.738 62.9h-21.334v28.052h21.235c10.371 0 17.778-5.333 17.778-14.223v-.197c0-8.493-6.517-13.631-17.679-13.631zm68.747 30.52H437.66v24.396h23.21c10.47 0 16.987-4.64 16.987-12.345v-.198c0-7.506-6.321-11.852-18.37-11.852zm14.519-19.26v-.197c0-6.814-5.432-11.259-15.308-11.259H437.66v23.803h20.443c9.384 0 15.902-4.246 15.902-12.346zm56.301-12.442c-15.802 0-27.061 12.641-27.061 28.345v.198c0 15.703 11.457 28.544 27.26 28.544s27.062-12.643 27.062-28.347v-.197c0-15.704-11.457-28.543-27.26-28.543zM300.064 99.445h31.803l-15.901-35.358-15.902 35.358zM608.242 62.9h-21.335v28.052h21.236c10.37 0 17.778-5.333 17.778-14.223v-.197c0-8.493-6.518-13.631-17.68-13.631zM88.827 75.994l63.931-20.545c-.048-.087-.089-.178-.137-.264a71.192 71.192 0 0 0-8.344-11.907L87.713 72.55l41.078-42.72a70.717 70.717 0 1 0-76.128 119.196l1.154-13.05 34.25 15.093.743 9.074c.643.018 1.283.05 1.93.05a70.867 70.867 0 0 0 69.146-55.79l-72.173-25.04 73.568 5.28a70.327 70.327 0 0 0-1.622-11.061zM53.297 92.14v-8.041h2.77v-16.41h-2.77v-4.716l15.39-15.06v-1.06a1.453 1.453 0 0 1 2.906 0v1.06l15.39 15.06v4.717h-2.77v16.409h2.77v8.041H83.25l1.967 24.065-28.536-12.575 1.016-11.49zm33.106 38.573l.478 5.85-31.872-14.047.48-5.425zm-30.559-17.64l.48-5.426 29.247 12.888.478 5.848zm-1.67 18.886l.48-5.424 32.582 14.358.477 5.847z"/><path d="M85.571 120.534l-29.246-12.888 29.246 12.888zm181.3-65.337a3.963 3.963 0 0 0-3.95 3.95V86.41H223.02V59.148a3.901 3.901 0 1 0-7.802 0v62.224a3.901 3.901 0 1 0 7.802 0V93.717h39.903v27.655a3.901 3.901 0 1 0 7.801 0V59.148a3.944 3.944 0 0 0-3.852-3.951zm54.329 3.162a4.977 4.977 0 0 0-4.838-3.458h-.397c-2.468 0-3.95 1.284-4.937 3.458l-28.05 61.335a4.5 4.5 0 0 0-.496 2.073 3.542 3.542 0 0 0 3.555 3.557 3.91 3.91 0 0 0 3.755-2.667l7.21-16.1h37.928l7.209 15.901a4.26 4.26 0 0 0 3.852 2.866 3.752 3.752 0 0 0 3.753-3.755 5.262 5.262 0 0 0-.495-1.975zm-21.136 41.086l15.902-35.358 15.901 35.358zm91.265-43.753h-25.875a3.943 3.943 0 0 0-3.852 3.951v61.73a3.901 3.901 0 1 0 7.802 0v-23.41h19.852l19.458 25.285a4.547 4.547 0 0 0 3.653 2.075 4.08 4.08 0 0 0 3.952-3.852 4.249 4.249 0 0 0-1.284-2.865L397.85 96.483c10.765-2.074 18.47-8.692 18.47-20.05v-.198a19.094 19.094 0 0 0-5.335-13.63c-4.345-4.345-11.16-6.913-19.656-6.913zm17.088 21.037c0 8.89-7.407 14.223-17.778 14.223h-21.235V62.9h21.334c11.162 0 17.68 5.138 17.68 13.63zm62.527 12.346c5.431-2.37 10.962-7.012 10.962-16v-.198a15.358 15.358 0 0 0-4.445-11.062c-3.95-3.852-10.173-6.123-18.073-6.123h-25.581a3.943 3.943 0 0 0-3.852 3.951v61.236a3.942 3.942 0 0 0 3.852 3.95h26.863c15.111 0 25.088-7.013 25.088-18.865v-.198c0-9.481-6.618-14.222-14.814-16.691zm-33.285-26.37h21.037c9.876 0 15.308 4.444 15.308 11.258v.198c0 8.1-6.518 12.346-15.902 12.346H437.66zm40.197 42.766c0 7.704-6.518 12.345-16.988 12.345h-23.21V93.421h21.827c12.05 0 18.37 4.346 18.37 11.852zm52.647-50.964c-21.037 0-35.358 16.692-35.358 35.754v.197c0 19.062 14.123 35.557 35.16 35.557s35.36-16.692 35.36-35.754v-.198c0-19.062-14.123-35.556-35.162-35.556zm27.063 35.95c0 15.705-11.259 28.348-27.063 28.348-15.802 0-27.26-12.84-27.26-28.544v-.198c0-15.704 11.26-28.346 27.062-28.346 15.804 0 27.261 12.84 27.261 28.544zm51.267-34.765h-25.875a3.943 3.943 0 0 0-3.852 3.951v61.73a3.901 3.901 0 1 0 7.801 0v-23.41h19.854l19.457 25.285a4.546 4.546 0 0 0 3.652 2.075 4.08 4.08 0 0 0 3.953-3.852 4.25 4.25 0 0 0-1.284-2.865l-17.186-22.124c10.766-2.074 18.47-8.692 18.47-20.05v-.198a19.094 19.094 0 0 0-5.334-13.63c-4.346-4.345-11.16-6.913-19.656-6.913zm17.088 21.037c0 8.89-7.407 14.223-17.778 14.223h-21.236V62.9h21.335c11.161 0 17.679 5.138 17.679 13.63zM53.817 135.977l-1.154 13.05a70.289 70.289 0 0 0 36.147 11.117l-.742-9.074zm2.863-32.348l28.536 12.575-1.967-24.065h3.734v-8.041h-2.77v-16.41h2.77v-4.716l-15.39-15.06v-1.06a1.453 1.453 0 0 0-2.905 0v1.06l-15.392 15.06v4.717h2.772v16.409h-2.772v8.041h4.4zm3.843-35.94h19.234v16.409h-4.565v-7.009a5.053 5.053 0 1 0-10.105 0v7.009h-4.564zm-5.514 54.826l31.872 14.046-.478-5.849-30.915-13.622-.479 5.425zm-.355 4.019l-.481 5.424 33.54 14.781-.477-5.847-32.582-14.358zm1.671-18.888l-.481 5.427 30.205 13.309-.478-5.848-29.246-12.888zM156.2 54.344l11.993-3.854c-.056-.109-.103-.225-.159-.332a87.015 87.015 0 0 0-9.255-14.385l-11.252 5.823a74.396 74.396 0 0 1 8.673 12.748z"/><path d="M152.621 55.185c.048.086.09.177.137.264l3.442-1.105a74.396 74.396 0 0 0-8.673-12.748l-3.25 1.682a71.192 71.192 0 0 1 8.344 11.907zm12.235 29.716l12.496.897a86.247 86.247 0 0 0-1.478-12.768l-12.609.43a74.22 74.22 0 0 1 1.591 11.441z"/><path d="M159.659 73.583a70.327 70.327 0 0 1 1.622 11.062l3.575.256a74.22 74.22 0 0 0-1.591-11.441z"/><path d="M90.74 163.707c-.55 0-1.094-.03-1.642-.042l.477 5.831-37.665-11.967.401-4.527a74.267 74.267 0 1 1 78.98-125.77l8.754-9.106a86.723 86.723 0 1 0 35.013 91.542l-11.827-4.103a74.281 74.281 0 0 1-72.491 58.142z"/><path d="M90.74 160.193c-.647 0-1.287-.031-1.93-.049l.288 3.521c.548.012 1.091.042 1.642.042a74.281 74.281 0 0 0 72.491-58.142l-3.345-1.16a70.867 70.867 0 0 1-69.146 55.788zM19.984 89.44A70.705 70.705 0 0 1 128.79 29.83l2.5-2.599a74.267 74.267 0 1 0-78.98 125.771l.352-3.975a70.743 70.743 0 0 1-32.68-59.588zm31.926 68.09l37.665 11.966-.477-5.83a73.886 73.886 0 0 1-36.787-10.664z"/><path d="M52.311 153.002a73.886 73.886 0 0 0 36.787 10.663l-.288-3.52a70.289 70.289 0 0 1-36.147-11.118zm95.216-111.406l11.252-5.823c-.502-.635-.985-1.285-1.504-1.906a87.462 87.462 0 0 0-14.842-14.035 89.622 89.622 0 0 0-2.388-1.706l-8.755 9.105a74.642 74.642 0 0 1 16.237 14.365z"/><path d="M87.713 72.55l56.564-29.272 3.25-1.682a74.642 74.642 0 0 0-16.237-14.365l-2.499 2.6zm56.564-29.272l3.25-1.682-3.25 1.682zm33.075 42.52l-12.496-.897c.091 1.503.151 3.013.151 4.538a74.467 74.467 0 0 1-1.776 16.126l11.827 4.103c.045-.18.096-.356.139-.538a86.631 86.631 0 0 0 2.28-19.69c0-.23-.014-.457-.016-.686-.008-.992-.067-1.972-.109-2.956z"/><path d="M164.856 84.901l-3.575-.256-73.568-5.28 72.173 25.04 3.345 1.16a74.467 74.467 0 0 0 1.776-16.126c0-1.525-.06-3.035-.15-4.538zm-1.591-11.441l12.609-.43a87.88 87.88 0 0 0-.781-3.732 86.086 86.086 0 0 0-6.9-18.808L156.2 54.344a73.752 73.752 0 0 1 7.065 19.116z"/><path d="M88.827 75.994l70.832-2.411 3.606-.123a73.752 73.752 0 0 0-7.065-19.116l-3.442 1.105z"/></svg>
